apps/web/public/images/new-landing/logos/resend.svg

<svg fill="none" height="420" viewBox="0 0 1978 420" width="1978" xmlns="http://www.w3.org/2000/svg"><path d="m543.803 118.321c89.375 0 154.412 62.098 149.797 174.965h-217.652c8.128 31.368 29.843 58.322 73.309 58.322 24.337 0 46.576-6.713 63.36-27.692h75.109l-1.259 6.713c-13.008 57.483-78.466 89.371-137.21 89.371-93.151 0-155.672-62.938-155.672-150.63s62.521-151.049 150.218-151.049zm629.817 0c89.8 0 154.42 62.098 150.22 174.965h-217.71c8.03 31.368 29.59 58.322 73.37 58.322 24.34 0 46.57-6.713 62.94-27.692h75.53l-1.26 6.713c-13.01 57.482-78.47 89.371-137.21 89.371-93.15 0-155.67-62.937-155.67-150.63 0-87.692 62.52-151.049 149.79-151.049zm804.38 293.288h-81.4l4.19-40.699c-11.33 24.336-47.83 48.252-93.57 48.252-75.53 0-136.79-57.902-136.79-149.371s60.42-149.371 136.79-149.371c41.54 0 67.14 13.427 89.8 36.504v-156.924h80.98zm-1124.53-294.965c66.297 0 124.621 23.915 141.405 82.657l1.679 6.294h-82.662c-17.624-21.818-41.121-24.756-60.422-24.756-18.043 0-46.576 4.616-46.576 22.238 0 16.364 18.882 21.818 35.247 23.916l47.834 5.035c75.947 6.714 109.516 36.504 109.516 94.826 0 67.132-66.717 92.307-132.595 92.307-65.877 0-134.272-29.371-147.28-88.951l-1.259-6.294h84.76c11.749 33.567 65.877 31.049 63.779 31.049 31.89 0 51.612-9.65 51.612-25.175 0-10.07-3.358-21.818-36.086-26.014l-49.933-5.035c-65.877-4.615-105.739-39.441-105.739-91.469 0-63.776 60.423-90.628 126.72-90.628zm-601.709-116.644c79.724 0 127.139 47.4126 127.139 110.35 0 62.937-47.415 110.35-127.139 110.35h-40.282l200.15 190.909h-141.405l-152.316-144.755c-10.909-10.07-15.945-21.818-15.945-31.888 0-14.266 10.071-26.853 29.372-32.308l78.466-20.979c29.791-7.972 50.352-31.049 50.352-61.259 0-36.9232-30.212-58.3223-67.556-58.3223h-192.597v-62.0977zm1268.869 118.74c71.34 0 121.27 52.028 121.27 126.294v166.574h-81.4v-152.728c0-41.958-22.24-67.133-61.69-67.133-39.44 0-65.03 26.014-65.03 67.133v152.728h-79.73v-286.994h80.99l-3.78 45.735c11.75-23.077 48.25-51.609 89.37-51.609zm305.89 73.009c-49.09 0-75.1 36.503-75.1 78.042 0 44.475 29.37 78.461 75.1 78.461 44.06 0 72.59-34.405 72.59-78.461s-27.69-78.042-72.59-78.042zm-1282.717-8.394c-39.665 0-62.328 23.686-69.361 55.385h137.286c-.835-3.65-1.91-7.552-3.307-11.748-10.071-28.531-33.568-43.636-64.618-43.637zm629.817 0c-39.32.001-61.92 23.686-68.94 55.385h137.29c-.84-3.65-1.91-7.552-3.31-11.748-10.07-28.531-33.57-43.637-65.04-43.637z" fill="#606060"/></svg>

<svg width="1978" height="420" viewBox="0 0 1978 420" fill="none" xmlns="http://www.w3.org/2000/svg">
<path d="M543.803 118.321C633.178 118.321 698.215 180.419 693.6 293.286H475.948C484.076 324.654 505.791 351.608 549.257 351.608C573.594 351.608 595.833 344.895 612.617 323.916H687.726L686.467 330.629C673.459 388.112 608.001 420 549.257 420C456.106 420 393.585 357.062 393.585 269.37C393.585 181.678 456.106 118.321 543.803 118.321ZM1173.62 118.321C1263.42 118.321 1328.04 180.419 1323.84 293.286H1106.13C1114.16 324.654 1135.72 351.608 1179.5 351.608C1203.84 351.608 1226.07 344.895 1242.44 323.916H1317.97L1316.71 330.629C1303.7 388.111 1238.24 420 1179.5 420C1086.35 420 1023.83 357.063 1023.83 269.37C1023.83 181.678 1086.35 118.321 1173.62 118.321ZM1978 411.609H1896.6L1900.79 370.91C1889.46 395.246 1852.96 419.162 1807.22 419.162C1731.69 419.162 1670.43 361.26 1670.43 269.791C1670.43 178.322 1730.85 120.42 1807.22 120.42C1848.76 120.42 1874.36 133.847 1897.02 156.924V0H1978V411.609ZM853.47 116.644C919.767 116.644 978.091 140.559 994.875 199.301L996.554 205.595H913.892C896.268 183.777 872.771 180.839 853.47 180.839C835.427 180.839 806.894 185.455 806.894 203.077C806.894 219.441 825.776 224.895 842.141 226.993L889.975 232.028C965.922 238.742 999.491 268.532 999.491 326.854C999.491 393.986 932.774 419.161 866.896 419.161C801.019 419.161 732.624 389.79 719.616 330.21L718.357 323.916H803.117C814.866 357.483 868.994 354.965 866.896 354.965C898.786 354.965 918.508 345.315 918.508 329.79C918.508 319.72 915.15 307.972 882.422 303.776L832.489 298.741C766.612 294.126 726.75 259.3 726.75 207.272C726.75 143.496 787.173 116.644 853.47 116.644ZM251.761 0C331.485 0 378.9 47.4126 378.9 110.35C378.9 173.287 331.485 220.7 251.761 220.7H211.479L411.629 411.609H270.224L117.908 266.854C106.999 256.784 101.963 245.036 101.963 234.966C101.963 220.7 112.034 208.113 131.335 202.658L209.801 181.679C239.592 173.707 260.153 150.63 260.153 120.42C260.153 83.4968 229.941 62.0977 192.597 62.0977H0V0H251.761ZM1520.63 118.74C1591.97 118.74 1641.9 170.768 1641.9 245.034V411.608H1560.5V258.88C1560.5 216.922 1538.26 191.747 1498.81 191.747C1459.37 191.747 1433.78 217.761 1433.78 258.88V411.608H1354.05V124.614H1435.04L1431.26 170.349C1443.01 147.272 1479.51 118.74 1520.63 118.74ZM1826.52 191.749C1777.43 191.749 1751.42 228.252 1751.42 269.791C1751.42 314.266 1780.79 348.252 1826.52 348.252C1870.58 348.252 1899.11 313.847 1899.11 269.791C1899.11 225.735 1871.42 191.749 1826.52 191.749ZM543.803 183.355C504.138 183.355 481.475 207.041 474.442 238.74H611.728C610.893 235.09 609.818 231.188 608.421 226.992C598.35 198.461 574.853 183.356 543.803 183.355ZM1173.62 183.355C1134.3 183.356 1111.7 207.041 1104.68 238.74H1241.97C1241.13 235.09 1240.06 231.188 1238.66 226.992C1228.59 198.461 1205.09 183.355 1173.62 183.355Z" fill="#606060"/>
</svg>
